icon-svg/xtool.svg

<?xml version="1.0" encoding="UTF-8" standalone="no"?>
<svg
   width="24"
   height="24"
   viewBox="0 0 24 24"
   version="1.1"
   xmlns="http://www.w3.org/2000/svg"
   xmlns:svg="http://www.w3.org/2000/svg">
  <path
     style="fill:#44739e"
     d="M 19.597,4.5331 C 18.859,4.5291 18.131,4.5341 17.402,4.5541 17.08,4.5631 16.684,4.7221 16.457,4.9481 11.768,9.6041 7.1,14.281 2.429,18.957 2.321,19.066 2.193,19.209 2,19.464 3.615,19.464 5.136,19.483 6.608,19.438 6.951,19.427 7.366,19.256 7.614,19.02 8.912,17.778 10.183,16.504 11.431,15.214 11.867,14.764 12.176,14.731 12.623,15.202 13.872,16.518 15.144,17.812 16.439,19.082 16.654,19.292 17.03,19.434 17.335,19.44 18.865,19.47 20.397,19.445 21.927,19.441 L 21.926,19.443 C 21.926,19.443 22.089,19.456 21.931,19.314 19.503,16.836 17.08,14.427 14.664,12.026 15.861,10.82 17.009,9.6701 18.147,8.5121 19.418,7.2181 20.681,5.9151 21.947,4.6151 21.947,4.6151 22.039,4.5541 21.845,4.5601 21.081,4.5481 20.334,4.5371 19.597,4.5331 Z M 4.373,4.5361 C 3.634,4.5371 2.894,4.5401 2.154,4.5401 V 4.5381 C 2.154,4.5381 1.982,4.5311 2.134,4.6531 4.12,6.6821 6.106,8.6471 8.091,10.61 L 10.68,7.9901 C 9.603,6.9161 8.521,5.8101 7.399,4.7451 7.222,4.5781 6.867,4.5481 6.592,4.5451 5.853,4.5371 5.113,4.5351 4.373,4.5361 Z"
   />
</svg>

<svg xmlns="http://www.w3.org/2000/svg" viewBox="0 0 24 24"><path fill="#44739e" d="M19.597 4.533a67 67 0 0 0-2.195.021c-.322.01-.718.168-.945.394C11.768 9.604 7.1 14.281 2.429 18.957a5 5 0 0 0-.429.507c1.615 0 3.136.019 4.608-.026a1.67 1.67 0 0 0 1.006-.418 140 140 0 0 0 3.817-3.806c.436-.45.745-.483 1.192-.012a152 152 0 0 0 3.816 3.88c.215.21.591.352.896.358 1.53.03 3.062.005 4.592.001l-.001.002s.163.013.005-.129a770 770 0 0 0-7.267-7.288c1.197-1.206 2.345-2.356 3.483-3.514 1.271-1.294 2.534-2.597 3.8-3.897 0 0 .092-.06-.102-.055a220 220 0 0 0-2.248-.027m-15.224.003q-1.109.003-2.219.004v-.002s-.172-.007-.02.115a514 514 0 0 0 5.957 5.957l2.589-2.62C9.603 6.916 8.521 5.81 7.399 4.745c-.177-.167-.532-.197-.807-.2q-1.109-.011-2.219-.009"/></svg>
